!!!!SEGMENT: pl-kc--40102-iii-1-saf--001-026_zielenski-mikolaj--offertoria-totius-anni-in-festo-corporis-christi-sacerdotes-domini.krn
!!!cenid: 16xx:1504
!!!COM: Zieleński, Mikołaj
!!!COM-rismID: pe30013481
!!!CDT: <1611->1611
!!!CNT: Polish
!!!GTL: Offertoria totius anni
!!!OTL: In festo Corporis Christi/Sacerdotes Domini
!!!OMV: 026
!!!PDT: 1611
!!!AGN: Sacred
!!!YEC: Copyright 2022 Narodowy Instytut Fryderyka Chopina (https://polishscores.org)
!!!YEM: License CC-BY-4.0 (https://creativecommons.org/licenses/by/4.0)
!!!SMS-siglum: PL-Kc
!!!SMS-shelfmark: 40102 III/1 Saf.
!!!SMS-shelfwork: 001-026 G
!!!SMS-variant:
!!!SMS-altvar:
!!!NIFC-rismSourceID: 990069886
!!!NIFC-rismChildID: 990069886
!!!NIFC-islandoraID: none
!!!URL-pdf-islandora:
!!!URL-scan: https://cyfrowe.mnk.pl/dlibra/publication/24235/edition/23926/content?ref=desc @EN{Scan on The National Museum in Krakow Website} @PL{Skany w portalu Biblioteka Cyfrowa Muzeum Narodowego w Krakowie}
!!!IIIF:
!!!ONB-nifc: UWAGA: str.. 24-25 Uwaga: W xml metrum 2/1 do źródłowego C| i odpowiednio 3/1 do 3/2
!!!AIN: 4 empty
!!!key:
**kern	**kern	**kern	**kern
*group1	*group1	*group1	*group1
*part4	*part3	*part2	*part1
*staff4	*staff3	*staff2	*staff1
*Iempty	*Iempty	*Iempty	*Iempty
*I""Organo	*I""Organo	*I""Organo	*I""Organo
*I''org	*I''org	*I''org	*I''org
*clefF4	*clefC1	*clefF3	*clefG2
*	*	*ok[b-b-]	*
*k[b-]	*k[b-]	*k[b-]	*k[b-]
*F:	*F:	*F:	*F:
*M2/1	*M2/1	*M2/1	*M2/1
*met(c|)	*met(c|)	*met(c|)	*met(c|)
=1	=1	=1	=1
!	!	!	!LO:TX:b:t=Sacerdotes Domini.
!	!	!	!LO:TX:a:t=In feſto Corporis Chriſti. A 8.
!	!	!	!LO:TX:t=P:problem=zapisane dwie części na co wskazuje w metryczce "str 24-25" oraz kolejny wylosowany utwór (031) ukazuje, że pomiędzy nimi będzie trzeba dołączyć któreś części do wylosowanego tytułu.(F.V.)
1r	2.c/	00r	00r
.	4c/	.	.
2.F\	2c/	.	.
.	2A/	.	.
4F\	.	.	.
=2-	=2-	=2-	=2-
2F\	2.f/	.	.
2D/	.	.	.
.	4f/	.	.
2.F\	2f/	.	.
.	2d/	.	.
4E\	.	.	.
=3	=3	=3	=3
4D/	2.f/	00r	00r
4C/	.	.	.
1BB-	.	.	.
.	4e/	.	.
.	4d/	.	.
.	4e/	.	.
2BB-/	4f/	.	.
.	4g/	.	.
=4-	=4-	=4-	=4-
2FF/	2.cc\	.	.
2F\	.	.	.
.	4cc\	.	.
2E\	2cc\	.	.
2F\	2a\	.	.
=5	=5	=5	=5
1C	2.cc\	00r	00r
.	4b-\	.	.
2.D/	4a\	.	.
.	4g/	.	.
.	1a\	.	.
4E\	.	.	.
=6-	=6-	=6-	=6-
2F\	.	.	.
2FF/	4g/	.	.
.	4f/	.	.
[y1C	2e/	.	.
.	2g/	.	.
=7	=7	=7	=7
!LO:N:xstem:cue	!	!	!
2C/]	1cc	00r	00r
2C/	.	.	.
1F	2a\	.	.
.	2a\	.	.
=8-	=8-	=8-	=8-
2BB-/	1dd	.	.
2BB-/	.	.	.
2.G\	2b-\	.	.
.	2b-\	.	.
4F\	.	.	.
=9	=9	=9	=9
4E-X\	2.ee\	00r	00r
4D/	.	.	.
1C	.	.	.
.	4dd\	.	.
.	4cc\	.	.
.	4g/	.	.
!LO:N:acc=#	!	!	!
2BBn/	1dd\	.	.
=10-	=10-	=10-	=10-
*lig	*	*	*
*col	*	*	*
1C	.	.	.
.	2.cc\	.	.
2.GG/	.	.	.
.	4cc\	.	.
!	!LO:N:acc=#	!	!
.	2bn\	.	.
*Xlig	*	*	*
*Xcol	*	*	*
4GG/	.	.	.
=11	=11	=11	=11
2.AA/	2.cc\	00r	0r
4BB-/	8b-\	.	.
.	8a\	.	.
1.C	2g/	.	.
.	2a\	.	.
=12-	=12-	=12-	=12-
.	1g	.	2.cc\
2C/	.	.	.
.	.	.	4cc\
1FF	1a	.	2cc\
.	.	.	2a/
=13	=13	=13	=13
00r	00r	00r	2.ff\
.	.	.	4ff\
!	!	!	!LO:N:vis=4
.	.	.	2ff\
.	.	.	2dd\
=14-	=14-	=14-	=14-
.	.	.	2.ff\
.	.	.	4ee\
.	.	.	4dd\
.	.	.	4cc\
.	.	.	[<2dd\
=15	=15	=15	=15
00r	00r	2.F/	2dd\]
.	.	.	4cc\
.	.	4F/	4b-/
.	.	2F/	2a/
.	.	2D/	1a/
=16-	=16-	=16-	=16-
.	.	2.F/	.
.	.	.	1ff
.	.	4E/	.
.	.	2D/	.
.	.	2BB-/	[<2dd\
=17	=17	=17	=17
00r	00r	1F	2dd\]
.	.	.	2cc\
.	.	2r	1ff
.	.	2D/	.
=18-	=18-	=18-	=18-
.	.	1G	2dd\
.	.	.	2dd\
.	.	2C/	1ee
.	.	2C/	.
=19	=19	=19	=19
*custos:C	*custos:a	*	*
00r	00r	1c	2cc\
.	.	.	2.ee\
.	.	1A	.
.	.	.	4ee\
.	.	.	2ff\
=20-	=20-	=20-	=20-
.	.	2.B-\	2.dd\
.	.	4A\	4cc\
.	.	2G\	4b-/
.	.	.	4g/
*	*	*custos:G	*custos:cc
.	.	2C/	[<2cc\
!!LO:LB:g=original
=21	=21	=21	=21
1r	1r	1G	4cc\]
!	!	!	!LO:N:acc=#
.	.	.	8bn/
.	.	.	8a/
.	.	.	2b/
2r	2r	1C	1cc
4r	2g/	.	.
4C/	.	.	.
=22-	=22-	=22-	=22-
2AA/	2a\	1r	1r
2GG/	2b-\	.	.
1FF	1cc	2r	2r
.	.	2F/	2cc\
=23	=23	=23	=23
0r	0r	2D/	2dd\
.	.	2C/	2ee\
.	.	4F/	4ff\
.	.	2D/	2ff\
.	.	4G\	4dd\
=24-	=24-	=24-	=24-
1r	1r	1C	1ee-X
2r	2r	1D	1dd
2D/	2f#X/	.	.
=25	=25	=25	=25
2BB-/	2g/	00r	00r
2AA/	2a\	.	.
4GG/	4b-\	.	.
2GG/	2b-\	.	.
4E\	4g/	.	.
=26-	=26-	=26-	=26-
1D	1f	.	.
2.C/	2e/	.	.
.	[y2cc\	.	.
4BB-/	.	.	.
=27	=27	=27	=27
!	!LO:N:xstem:cue	!	!
4AA/	4cc\]	00r	00r
4GG/	4b-\	.	.
2FF/	4a\	.	.
.	4g/	.	.
2.BB-/	2f/	.	.
.	2.b-\	.	.
4AA/	.	.	.
=28-	=28-	=28-	=28-
1GG	.	.	.
.	4a\	.	.
.	2.g/	.	.
2C/	.	.	.
.	4f/	.	.
2FF/	[y2f/	.	.
=29	=29	=29	=29
!	!LO:N:xstem:cue	!	!
1C	4f/]	1r	1r
.	8e/	.	.
.	8d/	.	.
.	2e/	.	.
2.FF/	2.f/	2r	2r
.	.	2F/	2cc\
4FF/	4a\	.	.
=30-	=30-	=30-	=30-
2BB-/	2b-\	2F/	2dd\
2GG/	2b-\	2BB-/	2ee\
1D	1dd	1F	1ff
=31	=31	=31	=31
00r	2r	2r	2r
.	1dd	1d	1ff
.	2.cc\	2e\	2ee\
=32-	=32-	=32-	=32-
.	.	2f\	1dd
!	!LO:N:acc=#	!	!
.	8bn\	.	.
.	8a\	.	.
.	2b\	2g\	.
.	2cc\	2c\	2ee\
.	[<2a\	[<2f\	[<2cc\
=33	=33	=33	=33
0r	2a\]	2f\]	2cc\]
.	2b-\	2d\	2dd\
.	1g	4g\	1b-
.	.	4G\	.
.	.	4B-\	.
.	.	4c\	.
=34-	=34-	=34-	=34-
2r	2f#X/	1d	1a
2D/	2d/	.	.
2C/	2e/	1r	1r
2AA/	2f#X/	.	.
=35	=35	=35	=35
2.GG/	2g/	2r	2r
.	2dd\	2G\	2gg\
4GG/	.	.	.
2D/	2dd\	2A\	2ff\
2AA/	2cc#X\	2A\	2ee\
=36-	=36-	=36-	=36-
2.D/	2.dd\	2.D/	2.dd\
2BB-/	2dd\	2F/	2ff\
4FF/	4ccny\	4A\	4ff\
2GG/	2b-\	2D/	2dd\
=37	=37	=37	=37
2D/	2a\	2.D/	2dd\
1BB-	2.dd\	.	1ff
.	.	4E/	.
.	.	2F/	.
.	4cc\	.	.
2C/	2.cc\	2C/	2ee\
=38-	=38-	=38-	=38-
1GG	.	2D/	1dd
!	!LO:N:acc=#	!	!
.	8bn\	.	.
.	8a\	.	.
.	2b\	2D/	.
1C	1cc	2C/	2.ee\
.	.	2c\	.
.	.	.	4ee\
=39	=39	=39	=39
00r	00r	2A\	2ff\
.	.	2.B-\	2.dd\
.	.	4B-\	4dd\
.	.	2G\	4.ee\
.	.	.	8dd\
=40-	=40-	=40-	=40-
.	.	2A\	4cc\
.	.	.	4a/
.	.	2D/	2.dd\
.	.	1A	.
.	.	.	8cc#X\
.	.	.	8b-\
.	.	.	2cc#\
=41	=41	=41	=41
2r	2r	1D	1dd
2D/	2f/	.	.
!LO:N:acc=#	!	!	!
2BBn/	2g/	1r	1r
2.C/	2.e/	.	.
=42-	=42-	=42-	=42-
.	.	0r	0r
4C/	4e/	.	.
2AA/	4.a\	.	.
.	8g/	.	.
2D/	4f/	.	.
.	4d/	.	.
2GG/	2.g/	.	.
=43	=43	=43	=43
1D	.	1r	1r
.	8f#X/	.	.
.	8e/	.	.
.	2f#/	.	.
*custos:B	*custos:b	*	*
1GG	1g	2r	2r
*	*	*	*custos:dd
*	*	*custos:E	*
!	!	!	!LO:N:acc=#
.	.	2G\	2bn/
!!LO:LB:g=original
=44-	=44-	=44-	=44-
00r	00r	2E/	2cc\
.	.	2.F/	2.a/
.	.	4F/	4a/
.	.	2D/	4.dd\
.	.	.	8dd\
=45	=45	=45	=45
.	.	2E-X/	4b-/
.	.	.	4g/
.	.	2BB-/	2dd\
.	.	1F	1cc
=46-	=46-	=46-	=46-
2r	2r	2BB-/	2dd\
2C/	2b-\	2D/	2dd\
2FF/	2cc\	2C/	2ff\
[y2C/	[y2cc\	[y2C/	[y2ee\
=47	=47	=47	=47
!LO:N:xstem:cue	!LO:N:xstem:cue	!LO:N:xstem:cue	!LO:N:xstem:cue
4C/]	4cc\]	4C/]	4ee\]
4C/	4cc\	4C/	4ee\
2GG/	2b-\	2D/	2dd\
2BB-/	2b-\	2D/	2dd\
2FF/	2cc\	2C/	2ff\
=48-	=48-	=48-	=48-
1GG	1b-	1G	1dd
2D/	2a\	2D/	2dd\
[>2BB-/	[>2b-\	[>2D/	2.dd\
=49	=49	=49	=49
2BB-/]	2b-\]	2D/]	.
.	.	.	4ee\
2FF/	2cc\	2C/	4ff\
.	.	.	4cc\
0C	0cc	4C/	2ee\
.	.	4BB-/	.
.	.	4AA/	4ff\
.	.	8GG/	2ff\
.	.	8FF/	.
=50-	=50-	=50-	=50-
.	.	1C	.
.	.	.	8ee\
.	.	.	8dd\
.	.	.	2ee\
1FF	1cc	2F/	2ff\
.	.	4F/	4cc\
.	.	4F/	4cc\
=51	=51	=51	=51
0r	0r	2B-\	2dd\
.	.	4G\	4dd\
.	.	2A\	2cc\
.	.	4F/	4cc\
!	!	!	!LO:N:acc=#
.	.	2G\	2bn/
=52-	=52-	=52-	=52-
2r	2r	1C	1cc
4C/	4g/	.	.
4C/	4g/	.	.
2F\	2a\	1r	1r
4D/	4a\	.	.
[>4G\	[>4d/	.	.
=53	=53	=53	=53
4G\]	4d/]	1r	1r
4GG/	4g/	.	.
2D/	2f#X/	.	.
1GG	1g	2r	2r
.	.	4G\	4dd\
.	.	4G\	4dd\
=54-	=54-	=54-	=54-
0r	0r	2c\	2ee\
.	.	4A\	4ee\
.	.	2d\	2a/
.	.	4D/	4dd\
.	.	2A\	2cc#X\
=55	=55	=55	=55
2r	2r	1D	1dd
4D/	4a\	.	.
4D/	4a\	.	.
!	!LO:N:acc=#	!	!
2GG/	2bn\	2r	2r
2C/	2cc\	4C/	4ee\
.	.	4C/	4ee\
=56-	=56-	=56-	=56-
2r	2r	2F/	2ff\
4BB-/	4dd\	2BB-/	2dd\
4BB-/	4dd\	.	.
2FF/	2cc\	4F/	4ff\
.	.	4F/	4ff\
2C/	2cc\	2C/	2ee\
=57	=57	=57	=57
4r	4r	4G\	4dd\
2GG/	2b-\	2D/	2dd\
4GG/	4b-\	4D/	4dd\
1BB-	1b-	4BB-/	1dd
.	.	4C/	.
.	.	4D/	.
.	.	4E/	.
=58-	=58-	=58-	=58-
2FF/	1.a	2F/	2cc\
2FF/	.	2.C/	2cc\
2.AA/	.	.	4cc\
.	.	4D/	4b-/
.	2a\	[<2E/	4cc\
4BB-/	.	.	4dd\
=59	=59	=59	=59
2C/	2g/	2E/]	4ee\
.	.	.	4cc\
2FF/	2a\	2F/	2.ff\
1C	2g/	2G\	.
.	.	.	8ee\
.	.	.	8dd\
.	2cc\	2C/	2ee\
=60-	=60-	=60-	=60-
2FF/	2cc\	2C/	2ff\
1BB-	1b-	4D/	2.dd\
.	.	4E/	.
.	.	4F/	.
.	.	4G\	4ee\
2AA/	2cc\	2A\	2.ff\
=61	=61	=61	=61
00BB-	2.dd\	2D/	.
.	.	.	4ee\
.	.	4BB-/	4dd\
.	4ee\	4C/	4cc\
.	2.ff\	4D/	4b-\
.	.	4E/	4cc\
.	.	2F/	4dd\
.	4ee\	.	4ee\
=62-	=62-	=62-	=62-
.	4dd\	2.BB-/	2ff\
.	4cc\	.	.
.	4b-\	.	2dd\
.	4a\	4C/	.
.	4b-\	2D/	1dd
.	4f/	.	.
.	1b-\	2BB-/	.
=63-	=63-	=63-	=63-
0FFl	.	0Cl	0ccl
.	4a\	.	.
.	4g/	.	.
.	1al	.	.
*clefF5	*clefC3	*clefF3	*clefG2
=64||	=64||	=64||	=64||
*	*	*ok[b-b-]	*
*k[b-]	*k[b-]	*k[b-]	*k[b-]
*M2/1	*M2/1	*M2/1	*M2/1
*met(c|)	*met(c|)	*met(c|)	*met(c|)
!	!	!LO:TX:b:t=Mirabilis Deus.	!LO:TX:a:t=In Cóe plurimoru(m) Martyru(m) extra tempus Paſchle. A 8.
00r	00r	1G	2r
.	.	.	1dd
.	.	2.d\	.
.	.	.	2.ff\
.	.	4d\	.
=65-	=65-	=65-	=65-
.	.	1c	.
.	.	.	4ff\
.	.	.	2ee\
.	.	1B-	1dd
=66	=66	=66	=66
*custos:BB	*custos:d	*	*
00r	00r	2A\	2cc#X\
.	.	2F#X/	1dd
.	.	2.G\	.
.	.	.	2.ee-X\
.	.	4G\	.
=67-	=67-	=67-	=67-
.	.	1G	.
.	.	.	4ee-X\
.	.	.	2.dd\
*	*	*custos:G	*
.	.	1C	.
.	.	.	8ccny\
.	.	.	8b-\
*	*	*	*custos:dd
.	.	.	2cc\
!!LO:LB:g=original
=68	=68	=68	=68
00r	00r	1G	4dd\
.	.	.	4cc\
.	.	.	4dd\
.	.	.	4ee\
.	.	1d	4.ff\
.	.	.	8ee\
.	.	.	8dd\
.	.	.	8ee\
.	.	.	8ff\
.	.	.	8dd\
=69-	=69-	=69-	=69-
*	*	*lig	*
.	.	1c	4.ee\
.	.	.	8dd\
.	.	.	8ee\
.	.	.	8dd\
.	.	.	8ee\
.	.	.	8cc\
.	.	1B-	4.dd\
.	.	.	8cc\
.	.	.	8dd\
.	.	.	8cc\
.	.	.	8dd\
.	.	.	8b-\
*	*	*Xlig	*
=70	=70	=70	=70
*	*	*lig	*
00r	00r	1A	4.cc\
.	.	.	8b-\
.	.	.	8cc\
.	.	.	8b-\
.	.	.	8cc\
.	.	.	8a/
.	.	1G	4.b-/
.	.	.	8a/
.	.	.	8b-/
.	.	.	8a/
.	.	.	8b-/
.	.	.	8g/
*	*	*Xlig	*
=71-	=71-	=71-	=71-
.	.	1d	4a/
.	.	.	2dd\
.	.	.	4cc\
.	.	1D	4.b-/
!	!	!	!LO:N:vis=8
.	.	.	16a/
!	!	!	!LO:N:vis=8
.	.	.	16g/
.	.	.	2a/
=72	=72	=72	=72
1GG	2r	1G	1g
.	1d	.	.
2.D\	.	1r	1r
.	2.f\	.	.
4D\	.	.	.
=73-	=73-	=73-	=73-
1C	.	0r	0r
.	4f\	.	.
.	2e\	.	.
1BB-	1d	.	.
=74	=74	=74	=74
2AA/	2c#X/	00r	00r
1AA	1e	.	.
2.FF/	2.b-\	.	.
=75-	=75-	=75-	=75-
.	.	.	.
4FF/	4a\	.	.
2EE/	2g\	.	.
1DD	2.f\	.	.
.	8e\	.	.
.	8d\	.	.
=76	=76	=76	=76
1AA	4c#X/	00r	00r
.	2d\	.	.
.	4c#X/	.	.
2.DD/	2d\	.	.
.	2f\	.	.
4D\	.	.	.
=77-	=77-	=77-	=77-
4.C\	4.e\	.	.
8BB-/	8d\	.	.
8AA/	8e\	.	.
8BB-/	8d\	.	.
8C\	8e\	.	.
8AA/	8cny\	.	.
4.BB-/	4.d\	.	.
8AA/	8c\	.	.
8GG/	8d\	.	.
8AA/	8c\	.	.
8BB-/	8d\	.	.
8GG/	8B-/	.	.
=78	=78	=78	=78
4.AA/	4.c/	00r	00r
8GG/	8B-/	.	.
8FF/	8c/	.	.
8GG/	8B-/	.	.
8AA/	8c/	.	.
8FF/	8A/	.	.
4.GG/	4.B-/	.	.
8AA/	8c/	.	.
8BB-/	4d\	.	.
8GG/	.	.	.
8BB-/	8c/	.	.
8C\	8B-/	.	.
=79-	=79-	=79-	=79-
1D	4A/	.	.
.	2d\	.	.
.	4c/	.	.
1DD	4.B-/	.	.
.	16A/	.	.
.	16G/	.	.
.	2A/	.	.
=80	=80	=80	=80
1GG	1G	2r	2r
.	.	1G	1gg
1r	1r	.	.
.	.	2D/	2ff\
=81-	=81-	=81-	=81-
0r	0r	2A\	2ee\
.	.	2A\	2ee\
.	.	2B-\	2dd\
.	.	[<2F/	[<2ff\
=82	=82	=82	=82
0r	0r	2F/]	2ff\]
.	.	2c\	2ee\
.	.	2d\	2dd\
.	.	2A\	2cc\
=83-	=83-	=83-	=83-
1r	1r	2B-\	2.b-/
.	.	2BB-/	.
.	.	.	4b-/
2r	2r	1F	1a
[<2D\	[<2a\	.	.
=84	=84	=84	=84
2D\]	2a\]	0r	0r
2BB-/	2g\	.	.
2AA/	2f\	.	.
2AA/	2e\	.	.
=85-	=85-	=85-	=85-
2D\	2d\	2r	2r
1BB-	1d	1D	1ff
*custos:GG	*custos:g	*custos:G	*custos:dd
2C\	2g\	2E/	2ee\
!!LO:PB:g=original
=86	=86	=86	=86
!LO:TX:t=P:problem=błędnie zapisany klucz, poprawiony ołówkiem	!	!	!
2GG/	2g\	2G\	2dd\
2GG/	2g\	2G\	2dd\
2CC/	2e\	2G\	2ee\
1FF/	1f\	1C/	1cc\
=87-	=87-	=87-	=87-
.	.	.	.
2DD/	2f\	2F/	2dd\
2AA/	4r	2E/	2ee\
.	2a\	.	.
2DD/	.	2D/	2ff\
.	4f\	.	.
=88	=88	=88	=88
2.AA/	2e\	2E/	2.ee\
.	2e\	2A\	.
4AA/	.	.	4ee\
1DD	1f#X	1F#X	1dd
=89	=89	=89	=89
*M3/1	*M3/1	*M3/1	*M3/1
*met(3/2)	*met(3/2)	*met(3/2)	*met(3/2)
1D	1f#X	1%6r	1%6r
1D	1f#	.	.
!LO:N:acc=#	!	!	!
1BBn	1g	.	.
=90-	=90-	=90-	=90-
1.C	1.e	.	.
2C\	2e\	.	.
1FF	1fny	.	.
=91	=91	=91	=91
1C	1e	1%6r	1%6r
1C	1e	.	.
1AA	1f	.	.
=92-	=92-	=92-	=92-
1.BB-	1.d	.	.
2BB-/	2d\	.	.
1GG	1e	.	.
=93-	=93-	=93-	=93-
0.D	0.f	1%6r	1%6r
=94	=94	=94	=94
*col	*col	*	*
1BB-	1g	.	.
0AA	0a	.	.
*Xcol	*Xcol	*	*
=95	=95	=95	=95
*col	*col	*	*
1GG	1d	1%6r	1%6r
0GG	0g	.	.
=96-	=96-	=96-	=96-
1E	1g	.	.
0D	0f	.	.
*Xcol	*Xcol	*	*
=97-	=97-	=97-	=97-
0.C	0.e	1%3r	1%3r
=98-	=98-	=98-	=98-
1%3r	1%3r	1c	1ee
.	.	1c	1ee
.	.	1A	1ff
=99	=99	=99	=99
1%6r	1%6r	1.B-	1.dd
.	.	2B-\	2dd\
.	.	1G	1ee
=100-	=100-	=100-	=100-
.	.	1A	1cc#X
.	.	1A	1cc#
.	.	1F#X	1dd
=101-	=101-	=101-	=101-
!	!	!	!LO:N:acc=#
1%6r	1%6r	1.G	1.bn
.	.	2G\	2b/
.	.	1E	1ccny
=102-	=102-	=102-	=102-
.	.	0.Fny	0.a
=103	=103	=103	=103
*	*	*col	*col
1%6r	1%6r	1D	1b-
.	.	0C	0cc
*	*	*Xcol	*Xcol
=104-	=104-	=104-	=104-
.	.	0.BB-	0.dd
=105-	=105-	=105-	=105-
1FF	1c	1F	1ff
1FF	1c	1F	1ff
1FF	1c	1F	1ff
=106-	=106-	=106-	=106-
0C	1.c	0G	0ee
.	2c/	.	.
1CC	1c	1G	1ee
=107	=107	=107	=107
*M2/1	*M2/1	*M2/1	*M2/1
*met(c|)	*met(c|)	*met(c|)	*met(c|)
2FF/	2r	2F/	2dd\
2.BB-/	1f	2.F/	2.b-/
4AA/	.	8G\	4cc\
.	.	8A\	.
2GG/	2B-/	4B-\	2dd\
.	.	8A\	.
.	.	8G\	.
=108-	=108-	=108-	=108-
1DD	1d	2A\	1dd
.	.	2A\	.
1GG	1d	2G\	2dd\
.	.	[<2G\	[<2gg\
=109	=109	=109	=109
0r	0r	2G\]	2gg\]
.	.	2D/	2ff\
.	.	2E-X/	2ee-X\
.	.	4D/	2ee-\
.	.	4C/	.
=110-	=110-	=110-	=110-
1r	1r	2G\	1dd
.	.	2GG/	.
2r	2r	1C	1cc
[<2C\	[<2g\	.	.
=111	=111	=111	=111
2C\]	2g\]	00r	00r
2FF/	2f\	.	.
2CC/	2e\	.	.
2DD/	2.d\	.	.
=112-	=112-	=112-	=112-
2.EE/	.	.	.
.	4c/	.	.
.	2.c/	.	.
4FF/	.	.	.
1GG	.	.	.
!	!LO:N:acc=#	!	!
.	8Bn/	.	.
.	8A/	.	.
.	2B/	.	.
=113	=113	=113	=113
2CC/	2c/	2r	2r
1FF	2.c/	1F	1cc
.	4A/	.	.
2GG/	4d\	2D/	2b-/
.	4e\	.	.
=114-	=114-	=114-	=114-
1.DD	2.f\	4D/	2a/
.	.	4E/	.
.	.	4F/	2.ff\
.	4e\	4G\	.
.	1d	2A\	.
.	.	.	4ee\
2DD/	.	2F/	2.dd\
=115	=115	=115	=115
1AA	2e\	1E	.
.	.	.	8cc\
.	.	.	8b-\
.	2A/	.	2cc\
1DD	1A	2.D/	2dd\
.	.	.	2ff\
.	.	4d\	.
=116-	=116-	=116-	=116-
*custos:GG	*custos:g	*	*
0r	0r	8c\	8ee\
.	.	8B-\	8dd\
.	.	8A\	8cc\
.	.	8B-\	8dd\
.	.	4c\	4ee\
.	.	4A\	4ff\
.	.	2.B-\	2.dd\
*	*	*custos:A	*custos:cc
.	.	4G\	4dd\
!!LO:LB:g=original
=117	=117	=117	=117
00r	00r	8A\	8cc\
.	.	8G\	8b-/
.	.	8F\	8a/
.	.	8G\	8b-/
.	.	4A\	4cc\
.	.	4F/	4dd\
.	.	2.G\	2.b-/
.	.	4G\	4b-/
=118-	=118-	=118-	=118-
.	.	8F/	8a/
.	.	8E/	8g/
.	.	8D/	8f/
.	.	8E/	8g/
.	.	4F/	4a/
.	.	4D/	4b-/
.	.	2E-X/	2.g/
.	.	2E-/	.
.	.	.	4gg\
=119	=119	=119	=119
00r	00r	1D	8ff\
.	.	.	8ee\
.	.	.	8dd\
.	.	.	8ee\
.	.	.	4ff\
.	.	.	4dd\
.	.	1C	8ee-X\
.	.	.	8dd\
.	.	.	8cc\
.	.	.	8dd\
.	.	.	4ee-X\
.	.	.	4cc\
=120-	=120-	=120-	=120-
.	.	2.BB-/	8dd\
.	.	.	8cc\
.	.	.	8b-\
.	.	.	8cc\
.	.	.	8dd\
.	.	.	8ee-X\
.	.	4B-\	4dd\
.	.	2A\	1cc
.	.	2A\	.
=121	=121	=121	=121
!	!	!	!LO:N:acc=#
2r	2r	1G	2bn/
2GG/	2g\	.	1r
2.DD/	8f\	1r	.
.	8e\	.	.
.	8d\	.	.
.	8e\	.	.
.	4f\	.	2r
4D\	4d\	.	.
=122-	=122-	=122-	=122-
8C\	2.e\	0r	0r
8BB-/	.	.	.
8AA/	.	.	.
8BB-/	.	.	.
4C\	.	.	.
4AA/	4f\	.	.
2.BB-/	8d\	.	.
.	8c/	.	.
.	8B-/	.	.
.	8c/	.	.
.	4d\	.	.
4BB-/	4B-/	.	.
=123	=123	=123	=123
8AA/	2.c/	0r	0r
8GG/	.	.	.
8FF/	.	.	.
8GG/	.	.	.
4AA/	.	.	.
4FF/	4c/	.	.
1GG	8B-/	.	.
.	8A/	.	.
.	8G/	.	.
.	8A/	.	.
.	8B-/	.	.
.	8c/	.	.
.	8d\	.	.
.	8e\	.	.
=124-	=124-	=124-	=124-
1DD	4f#X\	1r	1r
.	2g\	.	.
.	4f#X\	.	.
1GG	1g	2r	2r
.	.	2G\	2gg\
=125	=125	=125	=125
2r	2r	2d\	8ff\
.	.	.	8ee\
.	.	.	8dd\
.	.	.	8ee\
2D\	2f\	2d\	4ff\
.	.	.	4dd\
8C\	8e\	4G\	2.ee\
8BB-/	8d\	.	.
8AA/	8c\	2c\	.
8BB-/	8d\	.	.
4C\	4e\	.	.
4AA/	4c/	4c\	4ee\
=126-	=126-	=126-	=126-
2.BB-/	2.d\	2B-\	8dd\
.	.	.	8cc\
.	.	.	8b-\
.	.	.	8cc\
.	.	2F/	4dd\
4BB-/	4d\	.	4b-/
8AA/	8c/	2r	2.cc\
8GG/	8B-/	.	.
8FF/	8A/	.	.
8GG/	8B-/	.	.
4AA/	4c/	2C/	.
4FF/	4A/	.	4cc\
=127	=127	=127	=127
2GG/	2B-/	2.G\	8b-/
.	.	.	8a/
.	.	.	8g/
.	.	.	8a/
2GG/	2d\	.	4b-/
.	.	4B-\	4g/
1.DD	1.d	4A\	4a/
.	.	4.G\	2dd\
.	.	8D/	.
.	.	4A\	4cc\
=128-	=128-	=128-	=128-
.	.	4.B-\	2b-/
.	.	16A\	.
.	.	16G\	.
2DD/	2d\	2A\	2a/
!	!	!	!LO:N:acc=#
2GG/	2d\	2G\	2bn/
[>2CC/	[>2e-X\	2G\	4cc\
.	.	.	4dd\
=129	=129	=129	=129
2CC/]	2e-\]	2G\	4ee-X\
.	.	.	4cc\
2GG/	2d\	2D/	2dd\
0.CC	0.c	2.G\	4ee-X\
.	.	.	4cc\
.	.	.	2.gg\
.	.	4F/	.
=130-	=130-	=130-	=130-
.	.	4E-X/	.
.	.	4D/	4ff\
.	.	2C/	4ee-X\
.	.	.	4cc\
.	.	1G	2ee-X\
.	.	.	2ee-\
=131-	=131-	=131-	=131-
0GGl	0Gl	0Gl	0ddl
==	==	==	==
*-	*-	*-	*-
!!!system-decoration: (s1,s2,s3,s4)
!!!RDF**kern: < = below
!!!RDF**kern: > = above
!!!RDF**kern: l = terminal long
!!!ENC: Filip Voros
!!!END: 2021-12-14
!!!ENC: Marta Chmielewska
!!!END: 2021-12-20
